src/assets/img/icons/whatshot.svg

<svg width="34" height="43" viewBox="0 0 34 43" fill="none" xmlns="http://www.w3.org/2000/svg">
<path d="M16.4375 36.9688C19.125 36.9688 21.375 36.0625 23.1875 34.25C25.0625 32.375 26 30.0938 26 27.4062C26 24.6562 25.625 21.9688 24.875 19.3438C22.9375 21.9062 19.8438 23.625 15.5938 24.5C11.8438 25.3125 9.96875 27.375 9.96875 30.6875C9.96875 32.4375 10.5938 33.9375 11.8438 35.1875C13.0938 36.375 14.625 36.9688 16.4375 36.9688ZM20 0.3125C24 3.5625 27.1562 7.53125 29.4688 12.2188C31.8438 16.8438 33.0312 21.7812 33.0312 27.0312C33.0312 31.4062 31.4688 35.1562 28.3438 38.2812C25.2188 41.4062 21.4375 42.9688 17 42.9688C12.5625 42.9688 8.78125 41.4062 5.65625 38.2812C2.53125 35.1562 0.96875 31.4062 0.96875 27.0312C0.96875 20.2812 3.125 14.3438 7.4375 9.21875V9.96875C7.4375 12.0312 8.125 13.7813 9.5 15.2188C10.875 16.6562 12.5938 17.375 14.6562 17.375C16.6562 17.375 18.2812 16.6875 19.5312 15.3125C20.8438 13.875 21.5 12.0938 21.5 9.96875C21.5 8.71875 21.375 7.28125 21.125 5.65625C20.875 4.03125 20.625 2.75 20.375 1.8125L20 0.3125Z" fill="url(#paint0_linear)"/>
<defs>
<linearGradient id="paint0_linear" x1="17" y1="-1" x2="17" y2="47" gradientUnits="userSpaceOnUse">
<stop stop-color="#BC9CFF"/>
<stop offset="1" stop-color="#8BA4F9"/>
</linearGradient>
</defs>
</svg>

<svg xmlns="http://www.w3.org/2000/svg" width="34" height="43" fill="none"><path fill="url(#paint0_linear)" d="M16.44 36.97c2.68 0 4.93-.9 6.75-2.72A9.31 9.31 0 0026 27.41c0-2.75-.38-5.44-1.13-8.07-1.93 2.57-5.03 4.29-9.28 5.16-3.75.81-5.62 2.88-5.62 6.19 0 1.75.62 3.25 1.87 4.5a6.42 6.42 0 004.6 1.78zM20 .3c4 3.25 7.16 7.22 9.47 11.9a31.97 31.97 0 013.56 14.82c0 4.38-1.56 8.13-4.69 11.25A15.45 15.45 0 0117 42.97c-4.44 0-8.22-1.56-11.34-4.69a15.34 15.34 0 01-4.7-11.25c0-6.75 2.17-12.69 6.48-17.81v.75c0 2.06.68 3.81 2.06 5.25a6.84 6.84 0 005.16 2.15c2 0 3.62-.68 4.87-2.06a7.63 7.63 0 001.97-5.34c0-1.25-.13-2.69-.38-4.31a38.2 38.2 0 00-.75-3.85L20 .31z"/><defs><linearGradient id="paint0_linear" x1="17" x2="17" y1="-1" y2="47" gradientUnits="userSpaceOnUse"><stop stop-color="#BC9CFF"/><stop offset="1" stop-color="#8BA4F9"/></linearGradient></defs></svg>
